X: 1
T:Countess of Sutherland's Strathspey, The
M:C|
L:1/8
R:Strathspey
C: Miss Magdelina Stirling's Collection
Z: source from Highland Music Trust, chords by Gary Whaley
K:A
C|"A"A,>CE>C A>CE>C|A,>CE>C "E"FB,B,C|"A"A,>CE>C A>CE>C|Aec>B cAAC|A,CEC FCEC|
A,ECE FB,B,C|A,CEC ACEC|A,dcB cA A||c/d/|e>Ac>A eAcA|f>Bd>B fBdf|
e>Ac>A e>Ac>A|c/d/e Bd cAAc/d/|e>Ac>A e>Ac>e|fBdB fBdf|ceBd aec>B|AFE>C A,/A,/A, A2||